src/images/crypto-icon-svg/miota.svg

<svg xmlns="http://www.w3.org/2000/svg" width="32" height="32" viewBox="0 0 32 32">
  <g fill="none" fill-rule="evenodd">
    <circle cx="16" cy="16" r="16" fill="#242424"/>
    <path fill="#FFF" fill-rule="nonzero" d="M22.256625,6.77011184 C22.256625,7.47145201 21.6865593,8.03960275 20.9834782,8.03960275 C20.2793069,8.03960275 19.7086182,7.47145201 19.7086182,6.77011184 C19.7086182,6.0684612 20.2793069,5.5 20.9834782,5.5 C21.6865593,5.5 22.256625,6.0684612 22.256625,6.77011184 Z M21.3387569,11.1937707 C20.7427141,11.1937707 20.259526,10.7122057 20.259526,10.1181652 C20.259526,9.52412459 20.7427141,9.04255956 21.3387569,9.04255956 C21.9347997,9.04255956 22.4179878,9.52412459 22.4179878,10.1181652 C22.4179878,10.7122057 21.9347997,11.1937707 21.3387569,11.1937707 Z M21.004038,13.8466932 C20.5002102,13.8466932 20.0917771,13.4396321 20.0917771,12.9374968 C20.0917771,12.4353615 20.5002102,12.0283004 21.004038,12.0283004 C21.5078658,12.0283004 21.9162989,12.4353615 21.9162989,12.9374968 C21.9162989,13.4396321 21.5078658,13.8466932 21.004038,13.8466932 Z M20.9503023,15.2192584 C20.9503023,15.6480104 20.6009424,15.996352 20.170901,15.996352 C19.7402366,15.996352 19.3908767,15.6480104 19.3908767,15.2192584 C19.3908767,14.7906617 19.7402366,14.4424753 20.170901,14.4424753 C20.6009424,14.4424753 20.9503023,14.7906617 20.9503023,15.2192584 Z M19.7160945,16.9434252 C19.7160945,17.3121022 19.4167321,17.610459 19.0474354,17.610459 C18.6772042,17.610459 18.3772189,17.3121022 18.3772189,16.9434252 C18.3772189,16.5749033 18.6772042,16.2756152 19.0474354,16.2756152 C19.4167321,16.2756152 19.7160945,16.5749033 19.7160945,16.9434252 Z M18.3661602,18.1660359 C18.3661602,18.4831758 18.1088519,18.7394645 17.7909546,18.7394645 C17.4735245,18.7394645 17.2166835,18.4831758 17.2166835,18.1660359 C17.2166835,17.8496722 17.4733688,17.5933834 17.7909546,17.5933834 C18.1086961,17.5932282 18.3661602,17.8496722 18.3661602,18.1660359 Z M25.2395015,10.7574123 C25.1033711,11.3379817 24.5205334,11.6985866 23.9376958,11.5630687 C23.3554811,11.4270851 22.9936607,10.8465158 23.1304142,10.2659464 C23.2670119,9.6853771 23.8493823,9.32523784 24.431597,9.46106623 C25.0142789,9.59720508 25.375632,10.1774639 25.2395015,10.7574123 Z M24.7217697,13.5602893 C24.6060433,14.0517552 24.1129209,14.3570974 23.6188639,14.241294 C23.1262088,14.1267325 22.8201489,13.6344904 22.9358754,13.143335 C23.0509788,12.6520243 23.54488,12.3463716 24.0370679,12.4618646 C24.5308133,12.5773575 24.8371847,13.0688234 24.7217697,13.5602893 Z M23.758421,15.7971888 C23.6610737,16.2124356 23.2438043,16.4704319 22.8265349,16.3729459 C22.4100443,16.2756152 22.1510226,15.8605237 22.2485257,15.4445007 C22.3455615,15.0289435 22.7636096,14.7712576 23.1804118,14.8682779 C23.5972139,14.9652982 23.8567028,15.3811659 23.758421,15.7971888 Z M22.5159581,17.4993125 C22.4318501,17.8549501 22.0762599,18.074604 21.7195795,17.9917098 C21.3633663,17.9080396 21.1418817,17.5533334 21.2256783,17.1983168 C21.3082288,16.8433002 21.6649092,16.6222492 22.0214339,16.7059195 C22.3776471,16.7889689 22.5989759,17.1444512 22.5159581,17.4993125 Z M21.1590149,18.6876169 C21.0872115,18.9921829 20.7816189,19.1823427 20.475559,19.1103148 C20.1696549,19.0392184 19.9797888,18.7338762 20.0511249,18.4283787 C20.122461,18.1241231 20.4289881,17.9341186 20.735048,18.0061465 C21.0414193,18.0773982 21.2306625,18.3821194 21.1590149,18.6876169 Z M19.8042522,19.4390971 C19.7425729,19.7011295 19.4793459,19.8631922 19.2168976,19.8023411 C18.953982,19.7405585 18.7907501,19.4788366 18.8521178,19.216649 C18.9137971,18.9549272 19.1767126,18.7922436 19.4390052,18.8530947 C19.7022322,18.9148772 19.8654641,19.1767543 19.8042522,19.4390971 Z M26.9076446,14.5826502 C26.6858486,15.0398097 26.1340063,15.2307456 25.6759289,15.0095394 C25.2172285,14.7884884 25.025649,14.2386551 25.2479123,13.7813403 C25.4692411,13.3251122 26.0201489,13.1337106 26.4791608,13.3544511 C26.9373939,13.5759678 27.1297522,14.1258011 26.9076446,14.5826502 Z M25.946788,16.7976619 C25.7572333,17.1869849 25.2893433,17.349358 24.8988639,17.1609058 C24.5082287,16.9732298 24.3457756,16.5053592 24.5336169,16.1165019 C24.7231715,15.7277999 25.1919961,15.5657372 25.5820082,15.7527923 C25.9727992,15.941555 26.1360311,16.4092703 25.946788,16.7976619 Z M24.7387471,18.4788293 C24.5758267,18.8149075 24.1700832,18.9547719 23.8328722,18.7923988 C23.4962842,18.6301809 23.3553254,18.2265765 23.5185573,17.8900326 C23.6814777,17.5544201 24.0872212,17.413469 24.4238092,17.5766183 C24.7613317,17.7391467 24.901979,18.1430615 24.7387471,18.4788293 Z M23.3934855,19.6658917 C23.2515921,19.9575735 22.9003631,20.07881 22.6075425,19.9384799 C22.3148776,19.7975288 22.1924536,19.4457721 22.3335683,19.1540904 C22.4757732,18.8627191 22.827781,18.7408616 23.1196671,18.8815022 C23.4123319,19.0227637 23.5350674,19.3738995 23.3934855,19.6658917 Z M22.0382555,20.3981232 C21.9177007,20.6472712 21.617248,20.751277 21.3671044,20.6306614 C21.1171166,20.5106667 21.0124488,20.2102919 21.1334709,19.9614543 C21.2544931,19.7127719 21.55479,19.6083005 21.8049336,19.7289161 C22.0553887,19.8492213 22.1592777,20.1483542 22.0382555,20.3981232 Z M20.7654203,20.7668002 C20.6627773,20.9786925 20.4070266,21.0674855 20.1947316,20.965032 C19.9830597,20.8628891 19.8936559,20.6083079 19.9962989,20.3968813 C20.0989419,20.1854547 20.3546927,20.0966618 20.5668319,20.1989599 C20.7789711,20.3014134 20.8680633,20.5561498 20.7654203,20.7668002 Z M21.8013512,25.6229367 C21.1915678,25.2739742 20.9819207,24.4967253 21.3333054,23.8893008 C21.6851575,23.2820315 22.463157,23.0730886 23.0734076,23.423293 C23.6827238,23.7734974 23.8933054,24.5498148 23.5419206,25.1570841 C23.1900686,25.7648192 22.4111346,25.973762 21.8013512,25.6229367 Z M18.8108426,24.0907925 C18.2948241,23.7947642 18.1160166,23.1376653 18.4146002,22.6226041 C18.711782,22.108319 19.3709399,21.931354 19.8883602,22.2275375 C20.4040672,22.523721 20.5813171,23.1819066 20.2836681,23.6961916 C19.9864863,24.2109424 19.3271726,24.3879074 18.8108426,24.0907925 Z M16.6093922,22.2508224 C16.1724975,21.9993458 16.0223491,21.4442346 16.2740502,21.0083419 C16.5259071,20.5735358 17.0836681,20.4238918 17.5200955,20.6745921 C17.9563671,20.925603 18.1072943,21.4810247 17.8551259,21.9158308 C17.6040478,22.3520339 17.0464425,22.5009018 16.6093922,22.2508224 Z M15.1075961,20.2770419 C14.7350286,20.0623554 14.6066859,19.5876546 14.821473,19.2154072 C15.0368831,18.8440912 15.5127166,18.7160244 15.8865302,18.9305557 C16.2590977,19.1449317 16.3872846,19.6196325 16.1718745,19.9917246 C15.957399,20.3633511 15.4806309,20.4911074 15.1075961,20.2770419 Z M14.2253961,18.3512282 C13.9048509,18.166812 13.7947317,17.7591717 13.9793021,17.4395481 C14.1641841,17.1197692 14.5739772,17.0109513 14.8942109,17.1949017 C15.2136657,17.3786969 15.3240965,17.786803 15.1398375,18.10534 C14.9552671,18.4255845 14.5453182,18.5350234 14.2253961,18.3512282 Z M13.8361627,16.573972 C13.561254,16.4162558 13.4663988,16.0662066 13.6252695,15.7914452 C13.7838288,15.5173047 14.1350578,15.4235443 14.410278,15.5812605 C14.6848753,15.7392871 14.7795747,16.0896467 14.6211712,16.3640977 C14.462612,16.6376173 14.1109157,16.7318433 13.8361627,16.573972 Z M17.5856686,26.5 C16.9874753,26.5 16.5025438,26.0166975 16.5025438,25.4205136 C16.5025438,24.8243297 16.9874753,24.3410272 17.5856686,24.3410272 C18.1838619,24.3410272 18.6687934,24.8243297 18.6687934,25.4205136 C18.6687934,26.0166975 18.1838619,26.5 17.5856686,26.5 Z M14.6677421,24.362294 C14.2979782,24.0165914 14.2791318,23.438661 14.6252209,23.0701392 C14.9717772,22.7014621 15.551967,22.6831447 15.9217309,23.0276055 C16.2911834,23.3734634 16.3103413,23.9512385 15.9642522,24.3199156 C15.6180074,24.6884374 15.0381291,24.7067548 14.6677421,24.362294 Z M13.2033275,22.4141269 C12.8910374,22.121669 12.8749945,21.6325315 13.1676594,21.32098 C13.4609473,21.0092733 13.9514219,20.9932843 14.2640235,21.2854318 C14.5769366,21.5771136 14.5928237,22.0664062 14.2996915,22.3779577 C14.0073382,22.6895092 13.5163963,22.705343 13.2033275,22.4141269 Z M12.3444908,20.490176 C12.0770583,20.2414936 12.0635076,19.8232974 12.3136512,19.5569186 C12.5645735,19.2910054 12.9827775,19.276724 13.2500542,19.5260273 C13.5174866,19.7757963 13.5310374,20.1935268 13.2810495,20.4600609 C13.030906,20.7259741 12.6117675,20.7401002 12.3444908,20.490176 Z M11.9879661,18.7262698 C11.7586938,18.5122042 11.7473236,18.1533068 11.9616434,17.9246494 C12.1765862,17.6955263 12.5366933,17.6837287 12.7665886,17.897639 C12.996484,18.112015 13.0075426,18.4709124 12.7929113,18.6998802 C12.5778128,18.9286929 12.2181729,18.9404905 11.9879661,18.7262698 Z M12.0117967,17.1799994 C11.81461,16.9965147 11.8043302,16.6880678 11.9890564,16.4916988 C12.1736268,16.2951745 12.4829576,16.2850844 12.6801442,16.4695005 C12.8768636,16.6532957 12.887455,16.9612769 12.7024173,17.1578012 C12.5180026,17.3541702 12.2083603,17.364726 12.0117967,17.1799994 Z M12.6869975,25.7398267 C12.4016531,25.319923 12.5099033,24.7478914 12.9312223,24.4628847 C13.3526971,24.176636 13.9263452,24.2857644 14.2126241,24.705513 C14.4990588,25.1251063 14.3901856,25.6969826 13.9688665,25.9819893 C13.5473917,26.2680827 12.9745224,26.1592648 12.6869975,25.7398267 Z M11.2408062,23.8037677 C10.9967371,23.4464226 11.0900347,22.9599242 11.4484285,22.7171406 C11.806355,22.4745123 12.2948047,22.5667204 12.5385623,22.9232893 C12.7824757,23.2806344 12.6893338,23.7674433 12.3312516,24.0100716 C11.9723905,24.2531656 11.4850311,24.1609576 11.2408062,23.8037677 Z M10.3827483,21.920643 C10.1720109,21.6123513 10.2525366,21.1924476 10.5617115,20.9825733 C10.8715095,20.7723886 11.2934516,20.8521781 11.503566,21.1612459 C11.7147707,21.4700032 11.634245,21.8900622 11.3249143,22.1002469 C11.0149605,22.3090345 10.5928627,22.2301764 10.3827483,21.920643 Z M10.022797,20.1672925 C9.8404071,19.8992061 9.90956262,19.5348756 10.1780854,19.3523222 C10.4472311,19.1699241 10.8126339,19.2391578 10.9958026,19.5072442 C11.179127,19.7750201 11.1095042,20.1405925 10.8398911,20.3222145 C10.5713684,20.5047679 10.2059656,20.4346028 10.022797,20.1672925 Z M10.0623589,18.6314227 C9.90613599,18.4024549 9.96501163,18.0910586 10.1953742,17.93505 C10.4248023,17.7795071 10.7374039,17.8392716 10.8936269,18.067308 C11.050317,18.2968968 10.9909741,18.6093797 10.7606115,18.7636808 C10.5308719,18.9198446 10.2185818,18.8605458 10.0623589,18.6314227 Z M10.3771411,17.3476504 C10.2447488,17.1526785 10.2955251,16.8886281 10.4894409,16.7555939 C10.6847585,16.6239568 10.9506334,16.6744073 11.0831815,16.8689136 C11.2158853,17.0627989 11.1654205,17.3282464 10.9705701,17.4598835 C10.774318,17.5922968 10.5093776,17.5420015 10.3771411,17.3476504 Z M5.63749649,15.8060371 C6.24696837,15.4556774 7.02574665,15.6641546 7.37744292,16.2715792 C7.7294507,16.8788485 7.51933632,17.6554764 6.91048746,18.0061465 C6.30054831,18.3560404 5.5222373,18.147408 5.1710083,17.5410701 C4.81853325,16.9328694 5.02880338,16.1560862 5.63749649,15.8060371 Z M8.46726524,13.9954059 C8.98281646,13.6979805 9.64353196,13.8743246 9.94102526,14.3890753 C10.2382071,14.9036709 10.0615801,15.560925 9.54525014,15.8577295 C9.02923165,16.153913 8.36913918,15.9774137 8.07164588,15.46406 C7.77384106,14.9489988 7.95155827,14.2915894 8.46726524,13.9954059 Z M11.1680683,13.0186833 C11.6043399,12.7681382 12.1630354,12.9173165 12.4144251,13.3518122 C12.6661262,13.7875496 12.5161335,14.3439027 12.0803292,14.5947583 C11.6429673,14.8451482 11.0861408,14.6956594 10.8338167,14.2606981 C10.5821155,13.8262025 10.7321082,13.2698494 11.1680683,13.0186833 Z M13.6346149,12.7128754 C14.0074939,12.4983442 14.4837947,12.6259453 14.6987375,12.997727 C14.9144591,13.3698191 14.7859607,13.8442095 14.4138604,14.0587407 C14.0405141,14.2734272 13.5637461,14.1461366 13.348336,13.7734235 C13.1333932,13.4022627 13.2614243,12.9275619 13.6346149,12.7128754 Z M15.7486864,12.9168509 C16.0698546,12.7329004 16.4782459,12.8423393 16.6631279,13.1618076 C16.8481656,13.4806551 16.7378906,13.8892269 16.4179685,14.0727116 C16.0978906,14.2574382 15.6880975,14.1479993 15.5039943,13.828531 C15.318645,13.5092179 15.4286085,13.101267 15.7486864,12.9168509 Z M17.486608,13.4714964 C17.761984,13.3139354 18.1135245,13.4078511 18.271928,13.6816811 C18.4309546,13.9559768 18.3364109,14.3063364 18.0611906,14.4643631 C17.7861261,14.621924 17.4348971,14.5289398 17.2760264,14.2544888 C17.1176229,13.9801931 17.2121665,13.6299887 17.486608,13.4714964 Z M7.61388,11.2387882 C8.18628204,11.0669458 8.79076974,11.3899846 8.96334701,11.960619 C9.13639154,12.5312535 8.81210826,13.1337106 8.23970623,13.3055529 C7.66777146,13.4775504 7.063128,13.154667 6.89055074,12.584343 C6.71719469,12.013398 7.04116646,11.4112514 7.61388,11.2387882 Z M10.3081413,10.2861267 C10.7931645,10.1402082 11.304043,10.4140382 11.4510763,10.8968111 C11.5974867,11.3803601 11.3225779,11.8904539 10.8381778,12.0368381 C10.352999,12.1821357 9.84180891,11.9086161 9.69461981,11.4255328 C9.54883252,10.9426047 9.82280672,10.4318899 10.3081413,10.2861267 Z M12.7337242,10.0000333 C13.14305,9.87584731 13.5762065,10.1071436 13.6998765,10.5160259 C13.8237022,10.9252186 13.5919378,11.3559886 13.1812102,11.4797089 C12.7718843,11.6031187 12.3384163,11.3718224 12.2149021,10.9637163 C12.0906091,10.5546788 12.323308,10.1235983 12.7337242,10.0000333 Z M14.834868,10.2231023 C15.1843837,10.1176995 15.5536803,10.3146894 15.6602172,10.6645833 C15.7656638,11.0135459 15.5675426,11.3820677 15.2172481,11.487781 C14.8667979,11.5927181 14.4964109,11.3951072 14.3914316,11.0459895 C14.2856735,10.696406 14.4837947,10.3278842 14.834868,10.2231023 Z M16.5447536,10.799946 C16.8452062,10.7096008 17.1624805,10.8784937 17.2540648,11.178558 C17.3447146,11.4789327 17.1740064,11.7952965 16.8732422,11.8859522 C16.5720108,11.9766079 16.255048,11.8064732 16.163931,11.5064089 C16.0728139,11.207276 16.2432106,10.8904466 16.5447536,10.799946 Z M17.8744396,11.5952018 C18.1337728,11.5168095 18.4052549,11.6630384 18.4837557,11.9201033 C18.5616335,12.1784101 18.4155347,12.4496012 18.1569804,12.5273727 C17.898426,12.6049889 17.6264766,12.4592256 17.5481315,12.201695 C17.4704094,11.9436987 17.6165082,11.6720419 17.8744396,11.5952018 Z M10.1047245,7.88825112 C10.6126436,7.85146103 11.054834,8.23131482 11.0915923,8.73814874 C11.1280391,9.2442065 10.7458147,9.68444571 10.2382071,9.7217015 C9.73044361,9.75849158 9.2882533,9.37755117 9.25180648,8.87164864 C9.21551541,8.36465949 9.59711677,7.92442028 10.1047245,7.88825112 Z M12.5108378,7.61038505 C12.9427483,7.57933856 13.3192097,7.90315344 13.3502051,8.333613 C13.3813562,8.76500395 13.0569172,9.13911414 12.6236049,9.17031586 C12.1918502,9.20213851 11.8160118,8.87754748 11.7850165,8.44770884 C11.7532423,8.01631789 12.0783044,7.64205247 12.5108378,7.61038505 Z M14.5750675,7.81389478 C14.9482581,7.78688434 15.2733201,8.06676843 15.3001101,8.43917106 C15.3270558,8.81126322 15.0465399,9.13445717 14.6733494,9.16193331 C14.2995358,9.18816759 13.9750967,8.90859396 13.947528,8.53665703 C13.9205823,8.16378871 14.2010982,7.84074999 14.5750675,7.81389478 Z M16.2784114,8.38235598 C16.6023832,8.35891589 16.8843009,8.60200989 16.9079757,8.9250486 C16.9311833,9.24824255 16.6874257,9.52921327 16.363454,9.55249813 C16.0388592,9.57609346 15.7570972,9.33315469 15.7337339,9.01058168 C15.710059,8.6867668 15.9539724,8.40641701 16.2784114,8.38235598 Z M17.5917431,9.18568387 C17.8689881,9.16596935 18.1100979,9.3728942 18.1301904,9.64951841 C18.1501271,9.92552169 17.9418818,10.1653558 17.6649482,10.1856913 C17.3877032,10.2057162 17.1465934,9.99832571 17.1269682,9.72216719 C17.1065642,9.44600868 17.3148095,9.20632979 17.5917431,9.18568387 Z M18.5485501,10.1010896 C18.7840526,10.0849454 18.9887156,10.2603581 19.0055372,10.4947591 C19.022203,10.7290048 18.8457319,10.9331355 18.6106966,10.950211 C18.3759728,10.9672866 18.1713099,10.7906321 18.154021,10.5562311 C18.1370436,10.3221406 18.3138263,10.1184756 18.5485501,10.1010896 Z"/>
  </g>
</svg>

<svg xmlns="http://www.w3.org/2000/svg" width="32" height="32"><g fill="none" fill-rule="evenodd"><circle cx="16" cy="16" r="16" fill="#242424"/><path fill="#FFF" fill-rule="nonzero" d="M22.257 6.77c0 .701-.57 1.27-1.274 1.27a1.272 1.272 0 0 1-1.274-1.27c0-.702.57-1.27 1.274-1.27.704 0 1.274.568 1.274 1.27zm-.918 4.424c-.596 0-1.08-.482-1.08-1.076 0-.594.484-1.075 1.08-1.075.596 0 1.079.481 1.079 1.075s-.483 1.076-1.08 1.076zm-.335 2.653a.91.91 0 0 1-.912-.91.91.91 0 0 1 .912-.909.91.91 0 0 1 .912.91.91.91 0 0 1-.912.909zm-.054 1.372a.779.779 0 0 1-1.56 0 .779.779 0 0 1 1.56 0zm-1.234 1.724c0 .37-.3.667-.669.667a.668.668 0 1 1 .67-.667zm-1.35 1.223a.574.574 0 1 1-1.148 0 .574.574 0 0 1 1.148 0zm6.874-7.409a1.084 1.084 0 0 1-2.11-.491 1.083 1.083 0 0 1 2.11.491zm-.518 2.803a.917.917 0 0 1-1.786-.417.916.916 0 0 1 1.786.417zm-.964 2.237a.775.775 0 0 1-1.51-.352.776.776 0 0 1 1.51.352zM22.516 17.5a.663.663 0 0 1-1.29-.3.661.661 0 0 1 .795-.493.66.66 0 0 1 .495.793zm-1.357 1.189a.569.569 0 0 1-1.108-.26.569.569 0 0 1 1.108.26zm-1.355.751a.49.49 0 0 1-.952-.222.49.49 0 0 1 .952.222zm7.104-4.856a.923.923 0 0 1-1.232.427.917.917 0 0 1-.428-1.229.923.923 0 0 1 1.231-.427c.458.222.65.772.429 1.229zm-.961 2.215a.785.785 0 0 1-1.413-.681.788.788 0 0 1 1.048-.364.78.78 0 0 1 .365 1.045zm-1.208 1.68a.68.68 0 0 1-.906.314.674.674 0 0 1-.314-.902.678.678 0 0 1 1.22.589zm-1.346 1.188a.59.59 0 0 1-.785.272.587.587 0 1 1 .512-1.056.587.587 0 0 1 .273.784zm-1.355.732a.503.503 0 0 1-.905-.437.504.504 0 0 1 .905.437zm-1.273.369a.428.428 0 0 1-.57.198.425.425 0 1 1 .372-.766.425.425 0 0 1 .198.568zm1.036 4.856a1.267 1.267 0 0 1-.468-1.734 1.277 1.277 0 0 1 1.74-.466c.61.35.82 1.127.469 1.734a1.276 1.276 0 0 1-1.74.466zm-2.99-1.532a1.072 1.072 0 0 1-.396-1.468 1.081 1.081 0 0 1 1.473-.395c.516.296.693.954.396 1.468a1.08 1.08 0 0 1-1.473.395zm-2.202-1.84a.908.908 0 0 1-.335-1.243.914.914 0 0 1 1.246-.333.907.907 0 0 1 .335 1.24.913.913 0 0 1-1.246.336zm-1.501-1.974a.777.777 0 1 1 .779-1.346c.372.214.5.689.285 1.06a.78.78 0 0 1-1.064.286zm-.883-1.926a.666.666 0 0 1-.246-.911.671.671 0 0 1 .915-.245c.32.184.43.592.246.91a.67.67 0 0 1-.915.246zm-.389-1.777a.572.572 0 0 1-.21-.783.576.576 0 0 1 .784-.21.573.573 0 1 1-.574.993zm3.75 9.926a1.081 1.081 0 0 1-1.083-1.08c0-.596.484-1.079 1.083-1.079.598 0 1.083.483 1.083 1.08 0 .596-.485 1.079-1.083 1.079zm-2.918-2.138a.912.912 0 0 1-.043-1.292.92.92 0 0 1 1.297-.042c.37.345.388.923.042 1.292a.92.92 0 0 1-1.296.042zm-1.465-1.948a.772.772 0 0 1-.035-1.093.777.777 0 0 1 1.096-.036.77.77 0 0 1 .036 1.093.778.778 0 0 1-1.097.036zm-.859-1.924a.658.658 0 0 1-.03-.933c.25-.266.669-.28.936-.031a.66.66 0 0 1 .031.934.664.664 0 0 1-.937.03zm-.356-1.764a.566.566 0 0 1-.026-.801.57.57 0 0 1 .805-.027c.23.214.24.573.026.802a.57.57 0 0 1-.805.026zm.024-1.546a.485.485 0 0 1-.023-.688.49.49 0 0 1 .691-.022.489.489 0 0 1-.668.71zm.675 8.56a.918.918 0 0 1 .244-1.277.924.924 0 0 1 1.282.243.916.916 0 0 1-.244 1.276.925.925 0 0 1-1.282-.242zm-1.446-1.936a.78.78 0 0 1 .207-1.087.787.787 0 0 1 1.09.206.78.78 0 0 1-.207 1.087.786.786 0 0 1-1.09-.206zm-.858-1.883a.674.674 0 0 1 .179-.938c.31-.21.731-.13.942.178a.674.674 0 0 1-.18.94.68.68 0 0 1-.941-.18zm-.36-1.754a.586.586 0 0 1 .155-.815.59.59 0 0 1 .818.155.584.584 0 0 1-.156.815.59.59 0 0 1-.817-.155zm.04-1.536a.5.5 0 0 1 .132-.696.504.504 0 0 1 .699.132.503.503 0 0 1-.831.564zm.314-1.283a.427.427 0 1 1 .706-.48.427.427 0 0 1-.706.48zm-4.74-1.542a1.276 1.276 0 0 1 1.74.466 1.268 1.268 0 0 1-.467 1.734c-.61.35-1.388.141-1.739-.465a1.268 1.268 0 0 1 .466-1.735zm2.83-1.81a1.08 1.08 0 0 1 1.474.393c.297.515.12 1.172-.396 1.469a1.082 1.082 0 0 1-1.473-.394 1.073 1.073 0 0 1 .395-1.469zm2.701-.977a.915.915 0 0 1 1.246.333.91.91 0 0 1-.334 1.243.915.915 0 0 1-1.246-.334.908.908 0 0 1 .334-1.242zm2.467-.306a.78.78 0 0 1 1.064.285.775.775 0 0 1-.285 1.06.78.78 0 0 1-1.066-.285.775.775 0 0 1 .287-1.06zm2.114.204a.67.67 0 0 1 .914.245.67.67 0 0 1-1.16.667.666.666 0 0 1 .246-.912zm1.738.554a.577.577 0 0 1 .785.21.571.571 0 0 1-.21.783.573.573 0 1 1-.575-.993zM7.614 11.24a1.084 1.084 0 0 1 1.35.722 1.084 1.084 0 0 1-2.073.624c-.174-.572.15-1.174.723-1.346zm2.694-.953a.915.915 0 0 1 .53 1.75.914.914 0 1 1-.53-1.75zM12.734 10a.772.772 0 1 1 .447 1.48.772.772 0 1 1-.447-1.48zm2.1.223a.66.66 0 0 1 .382 1.265.663.663 0 0 1-.825-.442.66.66 0 0 1 .444-.823zm1.71.577a.568.568 0 0 1 .328 1.086.566.566 0 1 1-.328-1.086zm1.33.795a.487.487 0 1 1 .283.932.486.486 0 1 1-.283-.932zm-7.77-3.707a.92.92 0 0 1 .988.85.922.922 0 0 1-1.84.134.92.92 0 0 1 .853-.984zm2.407-.278a.783.783 0 0 1 .113 1.56.783.783 0 1 1-.113-1.56zm2.064.204a.677.677 0 0 1 .098 1.348.676.676 0 0 1-.098-1.348zm1.703.568a.587.587 0 0 1 .085 1.17.587.587 0 1 1-.085-1.17zm1.314.804a.502.502 0 1 1 0 0zm.957.915a.427.427 0 1 1 0 0z"/></g></svg>
